sources/design/Outline/L.svg

<svg:svg xmlns:cc="http://creativecommons.org/ns#" xmlns:dc="http://purl.org/dc/elements/1.1/" xmlns:inkscape="http://www.inkscape.org/namespaces/inkscape" xmlns:rdf="http://www.w3.org/1999/02/22-rdf-syntax-ns#" xmlns:sodipodi="http://sodipodi.sourceforge.net/DTD/sodipodi-0.dtd" xmlns:svg="http://www.w3.org/2000/svg" xml:space="preserve" width="1000" height="1000" version="1.1" style="clip-rule:evenodd;fill-rule:evenodd;image-rendering:optimizeQuality;shape-rendering:geometricPrecision;text-rendering:geometricPrecision" viewBox="0 0 1000 1000" id="svg10" sodipodi:docname="L.svg" inkscape:version="1.1.1 (3bf5ae0d25, 2021-09-20)"><svg:metadata id="metadata14"><rdf:RDF><cc:Work rdf:about=""><dc:format>image/svg+xml</dc:format><dc:type rdf:resource="http://purl.org/dc/dcmitype/StillImage" /></cc:Work></rdf:RDF></svg:metadata><sodipodi:namedview pagecolor="#ffffff" bordercolor="#666666" borderopacity="1" objecttolerance="10" gridtolerance="10" guidetolerance="10" inkscape:pageopacity="0" inkscape:pageshadow="2" inkscape:window-width="1920" inkscape:window-height="1009" id="namedview12" showgrid="false" inkscape:zoom="1.2005384" inkscape:cx="47.062218" inkscape:cy="563.91366" inkscape:window-x="0" inkscape:window-y="0" inkscape:window-maximized="1" inkscape:current-layer="svg10" showguides="true" inkscape:guide-bbox="true" inkscape:document-rotation="0" inkscape:pagecheckerboard="0"><sodipodi:guide position="0,1000" orientation="0,1" id="guide16" inkscape:label="" inkscape:locked="true" inkscape:color="rgb(0,0,255)" /><sodipodi:guide position="1763.3122,2036.1693" orientation="1000,0" id="guide18" /><sodipodi:guide position="0,200" orientation="0,1" id="guide20" inkscape:label="base" inkscape:locked="true" inkscape:color="rgb(0,0,255)" /><inkscape:grid type="xygrid" id="grid24" originx="-473.37552" originy="-489.69235" /><sodipodi:guide position="0,0" orientation="0,1" id="guide34" inkscape:label="bottom" inkscape:locked="true" inkscape:color="rgb(0,0,255)" /><sodipodi:guide position="225.05109,1693.3186" orientation="0,1" id="guide44" inkscape:label="" inkscape:locked="false" inkscape:color="rgb(0,0,255)" /><sodipodi:guide position="0,900" orientation="0,1" id="guide46" inkscape:label="" inkscape:locked="true" inkscape:color="rgb(0,0,255)" /><sodipodi:guide position="403.12317,594.92918" orientation="1,0" id="guide841" inkscape:label="width" />    </sodipodi:namedview>
 <svg:defs id="defs4"><inkscape:path-effect effect="fillet_chamfer" id="path-effect853" is_visible="true" lpeversion="1" satellites_param="F,0,0,1,0,18.446015,0,1 @ F,0,0,1,0,0,0,1 @ F,0,0,1,0,0,0,1 @ F,0,0,1,0,25.7312,0,1 @ F,0,0,1,0,14.012418,0,1 @ F,0,0,1,0,25.7312,0,1 @ F,0,0,1,0,0,0,1 @ F,0,0,1,0,0,0,1 @ F,0,0,1,0,0,0,1 @ F,0,0,1,0,0,0,1 @ F,0,0,1,0,0,0,1 @ F,0,0,1,0,13.562642,0,1" unit="px" method="auto" mode="F" radius="0" chamfer_steps="1" flexible="false" use_knot_distance="true" apply_no_radius="true" apply_with_radius="true" only_selected="true" hide_knots="false" /><inkscape:path-effect effect="fillet_chamfer" id="path-effect852" is_visible="true" lpeversion="1" satellites_param="F,0,0,1,0,20.055484,0,1 @ F,0,0,1,0,0,0,1 @ F,0,0,1,0,0,0,1 @ F,0,0,1,0,30.731507,0,1 @ F,0,1,1,0,30.731507,0,1 @ F,0,1,1,0,30.731507,0,1 @ F,0,0,1,0,0,0,1 @ F,0,0,1,0,0,0,1 @ F,0,0,1,0,0,0,1 @ F,0,0,1,0,0,0,1 @ F,0,0,1,0,0,0,1 @ F,0,0,1,0,23.069021,0,1" unit="px" method="auto" mode="F" radius="0" chamfer_steps="1" flexible="false" use_knot_distance="true" apply_no_radius="true" apply_with_radius="true" only_selected="true" hide_knots="false" /><inkscape:path-effect effect="fillet_chamfer" id="path-effect850" is_visible="true" lpeversion="1" satellites_param="F,0,0,1,0,29.739059,0,1 @ F,0,0,1,0,0,0,1 @ F,0,0,1,0,0,0,1 @ F,0,0,1,0,29.77522,0,1 @ F,0,0,1,0,23.271775,0,1 @ F,0,0,1,0,33.961645,0,1 @ F,0,0,1,0,0,0,1 @ F,0,0,1,0,0,0,1 @ F,0,0,1,0,0,0,1 @ F,0,0,1,0,0,0,1 @ F,0,0,1,0,0,0,1 @ F,0,0,1,0,0,0,1 @ F,0,0,1,0,0,0,1 @ F,0,0,1,0,22.065033,0,1" unit="px" method="auto" mode="F" radius="0" chamfer_steps="1" flexible="false" use_knot_distance="true" apply_no_radius="true" apply_with_radius="true" only_selected="true" hide_knots="false" /><inkscape:path-effect effect="spiro" id="path-effect848" is_visible="true" lpeversion="1" /><inkscape:path-effect effect="spiro" id="path-effect849" is_visible="true" lpeversion="1" /><inkscape:path-effect effect="spiro" id="path-effect851" is_visible="true" lpeversion="1" />
  <svg:style type="text/css" id="style2">
   
    .fil0 {fill:#EF7F1A;fill-rule:nonzero}
   
  </svg:style>
 <inkscape:path-effect effect="spiro" id="path-effect1214" is_visible="true" lpeversion="1" /><inkscape:path-effect effect="spiro" id="path-effect1195" is_visible="true" lpeversion="1" /><inkscape:path-effect effect="spiro" id="path-effect992" is_visible="true" lpeversion="1" /><inkscape:path-effect effect="spiro" id="path-effect1060" is_visible="true" lpeversion="1" /><inkscape:path-effect effect="spiro" id="path-effect1047" is_visible="true" lpeversion="1" /><inkscape:path-effect effect="spiro" id="path-effect1085" is_visible="true" lpeversion="1" /><inkscape:path-effect effect="spiro" id="path-effect1286" is_visible="true" lpeversion="1" /></svg:defs>
 
<svg:g id="path847"><svg:path style="color:#000000;clip-rule:nonzero;fill:#1a5fb4;fill-rule:nonzero;stroke-linecap:round;stroke-linejoin:round;-inkscape-stroke:none;paint-order:fill stroke markers;shape-rendering:auto" d="M 141.08398,-27.058594 C 138.08783,-26.979233999999998 135.1266,-26.587395 132.28125,-25.886719 L 41.806641,-3.6074219 C 16.181344,2.7028858 0.3567969,27.89572 5.0917969,53.496094 C 10.130421,80.738051 13.988384,108.1999 16.646484,135.77539 C 33.247999,308.00177 2.6336731,484.72873 -6.9433594,665.32422 C -8.8652853,701.56625 -9.9002383,737.85592 -10.046875,774.14844 C -10.170657,804.7845 15.306336,830.0 45.730469,830.0 L 363.45508,830.0 C 385.59253,830.0 405.08817,814.25362 409.74414,792.61133 L 427.88086000000004,708.30664 C 430.71373000000006,695.13861 429.39721000000003,676.0608 414.28711000000004,663.99805 C 399.17701000000005,651.9353 381.09382000000005,654.65315 368.86328000000003,659.8144500000001 C 319.25161,680.7506500000001 265.94296,693.13453 212.20508000000004,696.1347700000001 C 188.50952000000004,697.4577100000001 164.70181000000002,696.9722700000001 141.07227000000003,694.7031200000001 C 139.71830000000003,672.9696100000001 138.67100000000002,651.2170700000001 138.26758000000004,629.4453100000001 C 136.61880000000005,540.4641300000001 142.92348000000004,451.0963300000001 154.11328000000003,362.10352000000006 C 164.13789000000003,282.37752000000006 178.40632000000002,201.35368000000005 182.92773000000003,117.75781000000006 C 184.82994000000002,82.58822900000007 184.95788000000002,47.32451700000006 183.31445000000002,12.142578000000057 C 182.76296000000002,0.3363212800000568 176.77762,-11.853351999999944 166.83594000000002,-19.205077999999943 C 159.37968,-24.718872999999945 150.07245000000003,-27.296684999999943 141.08398000000003,-27.058593999999943 L 141.08398,-27.058594 M 124.16211,37.904297 C 124.76107999999999,63.444604 124.39336,89.008622 123.01367,114.51758 C 118.75062,193.33659999999998 104.84926,272.96163 94.582031,354.61719 C 83.120284,445.77281 76.564302,538.00205 78.279297,630.55664 C 78.855989,661.67947 80.367156,692.78428 82.810547,723.81641 A 30.003,30.003 0.0 0,0 108.31836,751.13672 C 143.78031,756.3945 179.75497000000001,758.0413699999999 215.54883,756.04297 C 265.69032,753.24352 315.30014,743.1346 362.60937,726.42383 L 353.23633,770.0 L 50.025391,770.0 C 50.230828,736.1504199999999 51.180096,702.3045099999999 52.972656,668.50195 C 62.292296,492.76014999999995 94.005815,312.98283 76.369141,130.01757999999995 C 73.85945699999999,103.98177999999996 70.181574,78.07285599999994 65.673828,52.30859399999996 L 124.16211,37.904297" id="path3312" /></svg:g></svg:svg>

<svg:svg xmlns:cc="http://creativecommons.org/ns#" xmlns:dc="http://purl.org/dc/elements/1.1/" xmlns:inkscape="http://www.inkscape.org/namespaces/inkscape" xmlns:rdf="http://www.w3.org/1999/02/22-rdf-syntax-ns#" xmlns:sodipodi="http://sodipodi.sourceforge.net/DTD/sodipodi-0.dtd" xmlns:svg="http://www.w3.org/2000/svg" xml:space="preserve" width="1000" height="1000" version="1.1" style="clip-rule:evenodd;fill-rule:evenodd;image-rendering:optimizeQuality;shape-rendering:geometricPrecision;text-rendering:geometricPrecision" viewBox="0 0 1000 1000" id="svg10" sodipodi:docname="L.svg" inkscape:version="1.1.1 (3bf5ae0d25, 2021-09-20)"><svg:metadata id="metadata14"><rdf:RDF><cc:Work rdf:about=""><dc:format>image/svg+xml</dc:format><dc:type rdf:resource="http://purl.org/dc/dcmitype/StillImage" /></cc:Work></rdf:RDF></svg:metadata><sodipodi:namedview pagecolor="#ffffff" bordercolor="#666666" borderopacity="1" objecttolerance="10" gridtolerance="10" guidetolerance="10" inkscape:pageopacity="0" inkscape:pageshadow="2" inkscape:window-width="1920" inkscape:window-height="1009" id="namedview12" showgrid="false" inkscape:zoom="1.2005384" inkscape:cx="47.062218" inkscape:cy="563.91366" inkscape:window-x="0" inkscape:window-y="0" inkscape:window-maximized="1" inkscape:current-layer="svg10" showguides="true" inkscape:guide-bbox="true" inkscape:document-rotation="0" inkscape:pagecheckerboard="0"><sodipodi:guide position="0,1000" orientation="0,1" id="guide16" inkscape:label="" inkscape:locked="true" inkscape:color="rgb(0,0,255)" /><sodipodi:guide position="1763.3122,2036.1693" orientation="1000,0" id="guide18" /><sodipodi:guide position="0,200" orientation="0,1" id="guide20" inkscape:label="base" inkscape:locked="true" inkscape:color="rgb(0,0,255)" /><inkscape:grid type="xygrid" id="grid24" originx="-473.37552" originy="-489.69235" /><sodipodi:guide position="0,0" orientation="0,1" id="guide34" inkscape:label="bottom" inkscape:locked="true" inkscape:color="rgb(0,0,255)" /><sodipodi:guide position="225.05109,1693.3186" orientation="0,1" id="guide44" inkscape:label="" inkscape:locked="false" inkscape:color="rgb(0,0,255)" /><sodipodi:guide position="0,900" orientation="0,1" id="guide46" inkscape:label="" inkscape:locked="true" inkscape:color="rgb(0,0,255)" /><sodipodi:guide position="403.12317,594.92918" orientation="1,0" id="guide841" inkscape:label="width" />    </sodipodi:namedview>
 <svg:defs id="defs4"><inkscape:path-effect effect="fillet_chamfer" id="path-effect853" is_visible="true" lpeversion="1" satellites_param="F,0,0,1,0,18.446015,0,1 @ F,0,0,1,0,0,0,1 @ F,0,0,1,0,0,0,1 @ F,0,0,1,0,25.7312,0,1 @ F,0,0,1,0,14.012418,0,1 @ F,0,0,1,0,25.7312,0,1 @ F,0,0,1,0,0,0,1 @ F,0,0,1,0,0,0,1 @ F,0,0,1,0,0,0,1 @ F,0,0,1,0,0,0,1 @ F,0,0,1,0,0,0,1 @ F,0,0,1,0,13.562642,0,1" unit="px" method="auto" mode="F" radius="0" chamfer_steps="1" flexible="false" use_knot_distance="true" apply_no_radius="true" apply_with_radius="true" only_selected="true" hide_knots="false" /><inkscape:path-effect effect="fillet_chamfer" id="path-effect852" is_visible="true" lpeversion="1" satellites_param="F,0,0,1,0,20.055484,0,1 @ F,0,0,1,0,0,0,1 @ F,0,0,1,0,0,0,1 @ F,0,0,1,0,30.731507,0,1 @ F,0,1,1,0,30.731507,0,1 @ F,0,1,1,0,30.731507,0,1 @ F,0,0,1,0,0,0,1 @ F,0,0,1,0,0,0,1 @ F,0,0,1,0,0,0,1 @ F,0,0,1,0,0,0,1 @ F,0,0,1,0,0,0,1 @ F,0,0,1,0,23.069021,0,1" unit="px" method="auto" mode="F" radius="0" chamfer_steps="1" flexible="false" use_knot_distance="true" apply_no_radius="true" apply_with_radius="true" only_selected="true" hide_knots="false" /><inkscape:path-effect effect="fillet_chamfer" id="path-effect850" is_visible="true" lpeversion="1" satellites_param="F,0,0,1,0,29.739059,0,1 @ F,0,0,1,0,0,0,1 @ F,0,0,1,0,0,0,1 @ F,0,0,1,0,29.77522,0,1 @ F,0,0,1,0,23.271775,0,1 @ F,0,0,1,0,33.961645,0,1 @ F,0,0,1,0,0,0,1 @ F,0,0,1,0,0,0,1 @ F,0,0,1,0,0,0,1 @ F,0,0,1,0,0,0,1 @ F,0,0,1,0,0,0,1 @ F,0,0,1,0,0,0,1 @ F,0,0,1,0,0,0,1 @ F,0,0,1,0,22.065033,0,1" unit="px" method="auto" mode="F" radius="0" chamfer_steps="1" flexible="false" use_knot_distance="true" apply_no_radius="true" apply_with_radius="true" only_selected="true" hide_knots="false" /><inkscape:path-effect effect="spiro" id="path-effect848" is_visible="true" lpeversion="1" /><inkscape:path-effect effect="spiro" id="path-effect849" is_visible="true" lpeversion="1" /><inkscape:path-effect effect="spiro" id="path-effect851" is_visible="true" lpeversion="1" />
  <svg:style type="text/css" id="style2">
   
    .fil0 {fill:#EF7F1A;fill-rule:nonzero}
   
  </svg:style>
 <inkscape:path-effect effect="spiro" id="path-effect1214" is_visible="true" lpeversion="1" /><inkscape:path-effect effect="spiro" id="path-effect1195" is_visible="true" lpeversion="1" /><inkscape:path-effect effect="spiro" id="path-effect992" is_visible="true" lpeversion="1" /><inkscape:path-effect effect="spiro" id="path-effect1060" is_visible="true" lpeversion="1" /><inkscape:path-effect effect="spiro" id="path-effect1047" is_visible="true" lpeversion="1" /><inkscape:path-effect effect="spiro" id="path-effect1085" is_visible="true" lpeversion="1" /><inkscape:path-effect effect="spiro" id="path-effect1286" is_visible="true" lpeversion="1" /></svg:defs>
 
<svg:g id="path847"><svg:path style="color:#000000;clip-rule:nonzero;fill:#1a5fb4;fill-rule:nonzero;stroke-linecap:round;stroke-linejoin:round;-inkscape-stroke:none;shape-rendering:auto" d="m 141.08398,-27.058594 c -2.99615,0.07936 -5.95738,0.471199 -8.80273,1.171875 L 41.806641,-3.6074219 C 16.181344,2.7028858 0.3567969,27.89572 5.0917969,53.496094 10.130421,80.738051 13.988384,108.1999 16.646484,135.77539 33.247999,308.00177 2.6336731,484.72873 -6.9433594,665.32422 -8.8652853,701.56625 -9.9002383,737.85592 -10.046875,774.14844 -10.170657,804.7845 15.306336,830 45.730469,830 H 363.45508 c 22.13745,0 41.63309,-15.74638 46.28906,-37.38867 l 18.13672,-84.30469 c 2.83287,-13.16803 1.51635,-32.24584 -13.59375,-44.30859 -15.1101,-12.06275 -33.19329,-9.3449 -45.42383,-4.1836 -49.61167,20.9362 -102.92032,33.32008 -156.6582,36.32032 -23.69556,1.32294 -47.50327,0.8375 -71.13281,-1.43165 -1.35397,-21.73351 -2.40127,-43.48605 -2.80469,-65.25781 -1.64878,-88.98118 4.6559,-178.34898 15.8457,-267.34179 10.02461,-79.726 24.29304,-160.74984 28.81445,-244.34571 1.90221,-35.169581 2.03015,-70.433293 0.38672,-105.615232 -0.55149,-11.80625672 -6.53683,-23.99593 -16.47851,-31.347656 -7.45626,-5.513795 -16.76349,-8.091607 -25.75196,-7.853516 z m -16.92187,64.962891 c 0.59897,25.540307 0.23125,51.104325 -1.14844,76.613283 -4.26305,78.81902 -18.16441,158.44405 -28.431639,240.09961 -11.461747,91.15562 -18.017729,183.38486 -16.302734,275.93945 0.576692,31.12283 2.087859,62.22764 4.53125,93.25977 a 30.003,30.003 0 0 0 25.507813,27.32031 c 35.46195,5.25778 71.43661,6.90465 107.23047,4.90625 50.14149,-2.79945 99.75131,-12.90837 147.06054,-29.61914 L 353.23633,770 H 50.025391 c 0.205437,-33.84958 1.154705,-67.69549 2.947265,-101.49805 9.31964,-175.7418 41.033159,-355.51912 23.396485,-538.48437 -2.509684,-26.0358 -6.187567,-51.944724 -10.695313,-77.708986 z" id="path3312" /></svg:g></svg:svg>
